icons/glyphs/glyph-stopwatch.svg

<?xml version="1.0" encoding="UTF-8" standalone="no"?><svg height="16" viewBox="0 0 4.2333332 4.2333332" width="16" xmlns="http://www.w3.org/2000/svg"><sodipodi:namedview><inkscape:grid/></sodipodi:namedview><metadata><rdf:RDF><cc:Work><dc:format>image/svg+xml</dc:format><dc:type/><dc:title/></cc:Work></rdf:RDF></metadata><g fill="#d0d0d0"><path d="m .50797933 0-.48162435.48162434.20980631.2098063.11937256-.11885578.16174722.16174723a2.1166666 2.1166666 0 0 0 -.51728107 1.38234451 2.1166666 2.1166666 0 0 0 2.1166666 2.1166667 2.1166666 2.1166666 0 0 0 2.1166667-2.1166667 2.1166666 2.1166666 0 0 0 -.5286499-1.39681391l.1472779-.14727783.1188556.11885578.2098064-.2098063-.4816243-.48162434-.2098063.20980631.10542.10541991-.1519288.15244548a2.1166666 2.1166666 0 0 0 -1.3260173-.4676717 2.1166666 2.1166666 0 0 0 -1.34048658.47955729l-.16433107-.16433107.10593668-.10541991zm1.60868727.41031085a1.706419 1.706419 0 0 1 1.7063559 1.70635575 1.706419 1.706419 0 0 1 -1.7063559 1.7063559 1.706419 1.706419 0 0 1 -1.70635575-1.7063559 1.706419 1.706419 0 0 1 1.70635575-1.70635575z" opacity=".361702"/><path d="m3.4020246 1.37379-.5214631.3007744c.07092.1228374.1108616.2616218.1170482.4033276l.6022738-.0260912c-.0104096-.2384187-.0785361-.4713375-.1978589-.6780108zm-.4029655.7428766c0 .1418417-.034884.281137-.1003787.4069515l.5345088.2783069c.1101942-.2116814.1677816-.4466125.1677813-.6852584zm-1.7644226.038412-.60118658.025729c.0104131.2384188.0770868.4709753.19640935.6776485l.52255023-.3014991c-.0709204-.1228378-.111586-.2601723-.117773-.4018784zm1.6452001.4026031c-.0709204.1228378-.169551.2267376-.2891783.3029489l.3228795.5073305c.201272-.1282246.3691639-.3021066.4884868-.5087801zm-1.5074962.032614-.50841751.3239669c.12822485.2012717.30319361.3684391.50986711.487762l.3007744-.5214631c-.1228378-.0709207-.2260129-.1706382-.302224-.2902658zm1.1853413.2895409c-.1228374.0709201-.2612594.1119485-.4029653.1181351l.025729.6011864c.238419-.0104131.4720622-.0778104.6787356-.1971335zm-.8490537.0188438-.2783069.5345088c.2116815.1101942.4476998.1677816.6863455.1677813v-.6019114c-.1418402 0-.2822241-.034884-.4080386-.1003787z" opacity=".174468"/><path d="m2.1166666.63236274v.60191136c.1418417 0 .2811372.033798.4069515.099292l.2783069-.53378427c-.2116814-.1101944-.4466125-.16741909-.6852584-.16741909zm-.065228.00036239c-.2384185.01041309-.4706125.07817366-.6772858.19749653l.3014992.52255024c.1228374-.0709201.2605346-.1115853.4022405-.1177733zm.8070176.19713414-.3014992.52255023c.1228374.07092.2274623.1702758.3036736.2899032l.5076927-.3228796c-.1282243-.2012719-.3031936-.37025096-.5098671-.48957383zm-1.5397479.03406362c-.2012719.12822428-.36916376.30355601-.48848664.51022951l.52255024.3014992c.0709205-.1228379.1702758-.2274625.2899032-.3036736zm-.51892647.56639821c-.1101944.2116814-.16741909.4476998-.16741909.6863455h.60191136c0-.1418402.033798-.2822241.099292-.4080386z" opacity=".817021"/></g><path d="m2.4626564 2.1166666a.34598985.34598985 0 0 1 -.3459898.3459898.34598985.34598985 0 0 1 -.3459899-.3459898.34598985.34598985 0 0 1  .3459899-.3459898.34598985.34598985 0 0 1  .3459898.3459898z" fill="#0f0"/></svg>

<?xml version="1.0" encoding="UTF-8" standalone="no"?>
<!-- Created with Inkscape (http://www.inkscape.org/) -->

<svg
   xmlns:dc="http://purl.org/dc/elements/1.1/"
   xmlns:cc="http://creativecommons.org/ns#"
   xmlns:rdf="http://www.w3.org/1999/02/22-rdf-syntax-ns#"
   xmlns:svg="http://www.w3.org/2000/svg"
   xmlns="http://www.w3.org/2000/svg"
   xmlns:sodipodi="http://sodipodi.sourceforge.net/DTD/sodipodi-0.dtd"
   xmlns:inkscape="http://www.inkscape.org/namespaces/inkscape"
   width="16"
   height="16"
   viewBox="0 0 4.2333332 4.2333332"
   version="1.1"
   id="svg8"
   inkscape:version="0.92+devel (f96dc7e339, 2017-07-28, custom)"
   sodipodi:docname="glyph-stopwatch.svg">
  <defs
     id="defs2" />
  <sodipodi:namedview
     id="base"
     pagecolor="#002466"
     bordercolor="#ffffff"
     borderopacity="0.38039216"
     inkscape:pageopacity="1"
     inkscape:pageshadow="2"
     inkscape:zoom="25.75"
     inkscape:cx="10.094581"
     inkscape:cy="7.9162778"
     inkscape:document-units="px"
     inkscape:current-layer="svg8"
     inkscape:document-rotation="0"
     showgrid="false"
     inkscape:showpageshadow="false"
     borderlayer="true"
     inkscape:window-width="1920"
     inkscape:window-height="1051"
     inkscape:window-x="0"
     inkscape:window-y="0"
     inkscape:window-maximized="1"
     units="px"
     inkscape:snap-object-midpoints="true"
     inkscape:snap-center="true">
    <inkscape:grid
       type="xygrid"
       id="grid1021" />
  </sodipodi:namedview>
  <metadata
     id="metadata5">
    <rdf:RDF>
      <cc:Work
         rdf:about="">
        <dc:format>image/svg+xml</dc:format>
        <dc:type
           rdf:resource="http://purl.org/dc/dcmitype/StillImage" />
        <dc:title></dc:title>
      </cc:Work>
    </rdf:RDF>
  </metadata>
  <path
     style="font-variation-settings:normal;opacity:0.36170211;vector-effect:none;fill:#d0d0d0;stroke:none;stroke-width:1.03187501;stroke-linecap:butt;stroke-miterlimit:5.5;stroke-dasharray:none;stroke-opacity:1"
     d="M 0.50797933,0 0.02635498,0.48162434 0.23616129,0.69143064 0.35553385,0.57257486 0.51728107,0.73432209 A 2.1166666,2.1166666 0 0 0 0,2.1166666 2.1166666,2.1166666 0 0 0 2.1166666,4.2333333 2.1166666,2.1166666 0 0 0 4.2333333,2.1166666 2.1166666,2.1166666 0 0 0 3.7046834,0.71985269 L 3.8519613,0.57257486 3.9708169,0.69143064 4.1806233,0.48162434 3.698999,0 3.4891927,0.20980631 3.5946127,0.31522622 3.4426839,0.4676717 A 2.1166666,2.1166666 0 0 0 2.1166666,0 2.1166666,2.1166666 0 0 0 0.77618002,0.47955729 L 0.61184895,0.31522622 0.71778563,0.20980631 Z M 2.1166666,0.41031085 A 1.706419,1.706419 0 0 1 3.8230225,2.1166666 1.706419,1.706419 0 0 1 2.1166666,3.8230225 1.706419,1.706419 0 0 1 0.41031085,2.1166666 1.706419,1.706419 0 0 1 2.1166666,0.41031085 Z"
     id="path998"
     inkscape:connector-curvature="0"
     inkscape:label="#" />
  <path
     style="color:#000000;font-style:normal;font-variant:normal;font-weight:normal;font-stretch:normal;font-size:medium;line-height:normal;font-family:sans-serif;font-variant-ligatures:normal;font-variant-position:normal;font-variant-caps:normal;font-variant-numeric:normal;font-variant-alternates:normal;font-variant-east-asian:normal;font-feature-settings:normal;font-variation-settings:normal;text-indent:0;text-align:start;text-decoration:none;text-decoration-line:none;text-decoration-style:solid;text-decoration-color:#000000;letter-spacing:normal;word-spacing:normal;text-transform:none;writing-mode:lr-tb;direction:ltr;text-orientation:mixed;dominant-baseline:auto;baseline-shift:baseline;text-anchor:start;white-space:normal;shape-padding:0;clip-rule:nonzero;display:inline;overflow:visible;visibility:visible;opacity:0.1744681;isolation:auto;mix-blend-mode:normal;color-interpolation:sRGB;color-interpolation-filters:linearRGB;solid-color:#000000;solid-opacity:1;vector-effect:none;fill:#d0d0d0;fill-opacity:1;fill-rule:nonzero;stroke:none;stroke-width:1.03187501;stroke-linecap:butt;stroke-linejoin:miter;stroke-miterlimit:5.5;stroke-dasharray:none;stroke-dashoffset:0;stroke-opacity:1;color-rendering:auto;image-rendering:auto;shape-rendering:auto;text-rendering:auto;enable-background:accumulate"
     d="M 3.4020246,1.37379 2.8805615,1.6745644 c 0.07092,0.1228374 0.1108616,0.2616218 0.1170482,0.4033276 L 3.5998835,2.0518008 C 3.5894739,1.8133821 3.5213474,1.5804633 3.4020246,1.37379 Z M 2.9990591,2.1166666 c 0,0.1418417 -0.034884,0.281137 -0.1003787,0.4069515 L 3.4331892,2.801925 C 3.5433834,2.5902436 3.6009708,2.3553125 3.6009705,2.1166666 Z m -1.7644226,0.038412 -0.60118658,0.025729 c 0.0104131,0.2384188 0.0770868,0.4709753 0.19640935,0.6776485 L 1.3524095,2.556957 C 1.2814891,2.4341192 1.2408235,2.2967847 1.2346365,2.1550786 Z M 2.8798366,2.5576817 C 2.8089162,2.6805195 2.7102856,2.7844193 2.5906583,2.8606306 L 2.9135378,3.3679611 C 3.1148098,3.2397365 3.2827017,3.0658545 3.4020246,2.859181 Z M 1.3723404,2.5902957 0.86392289,2.9142626 C 0.99214774,3.1155343 1.1671165,3.2827017 1.37379,3.4020246 L 1.6745644,2.8805615 C 1.5517266,2.8096408 1.4485515,2.7099233 1.3723404,2.5902957 Z M 2.5576817,2.8798366 C 2.4348443,2.9507567 2.2964223,2.9917851 2.1547164,2.9979717 l 0.025729,0.6011864 C 2.4188644,3.588745 2.6525076,3.5213477 2.859181,3.4020246 Z M 1.708628,2.8986804 1.4303211,3.4331892 C 1.6420026,3.5433834 1.8780209,3.6009708 2.1166666,3.6009705 V 2.9990591 c -0.1418402,0 -0.2822241,-0.034884 -0.4080386,-0.1003787 z"
     id="path994"
     inkscape:connector-curvature="0"
     inkscape:label="#" />
  <path
     style="color:#000000;font-style:normal;font-variant:normal;font-weight:normal;font-stretch:normal;font-size:medium;line-height:normal;font-family:sans-serif;font-variant-ligatures:normal;font-variant-position:normal;font-variant-caps:normal;font-variant-numeric:normal;font-variant-alternates:normal;font-variant-east-asian:normal;font-feature-settings:normal;font-variation-settings:normal;text-indent:0;text-align:start;text-decoration:none;text-decoration-line:none;text-decoration-style:solid;text-decoration-color:#000000;letter-spacing:normal;word-spacing:normal;text-transform:none;writing-mode:lr-tb;direction:ltr;text-orientation:mixed;dominant-baseline:auto;baseline-shift:baseline;text-anchor:start;white-space:normal;shape-padding:0;clip-rule:nonzero;display:inline;overflow:visible;visibility:visible;opacity:0.81702127;isolation:auto;mix-blend-mode:normal;color-interpolation:sRGB;color-interpolation-filters:linearRGB;solid-color:#000000;solid-opacity:1;vector-effect:none;fill:#d0d0d0;fill-opacity:1;fill-rule:nonzero;stroke:none;stroke-width:1.03187501;stroke-linecap:butt;stroke-linejoin:miter;stroke-miterlimit:5.5;stroke-dasharray:none;stroke-dashoffset:0;stroke-opacity:1;color-rendering:auto;image-rendering:auto;shape-rendering:auto;text-rendering:auto;enable-background:accumulate"
     d="M 2.1166666,0.63236274 V 1.2342741 c 0.1418417,0 0.2811372,0.033798 0.4069515,0.099292 L 2.801925,0.79978183 C 2.5902436,0.68958743 2.3553125,0.63236274 2.1166666,0.63236274 Z m -0.065228,3.6239e-4 C 1.8130201,0.64313822 1.5808261,0.71089879 1.3741528,0.83022166 L 1.675652,1.3527719 C 1.7984894,1.2818518 1.9361866,1.2411866 2.0778925,1.2349986 Z M 2.8584562,0.82985927 2.556957,1.3524095 c 0.1228374,0.07092 0.2274623,0.1702758 0.3036736,0.2899032 L 3.3683233,1.3194331 C 3.240099,1.1181612 3.0651297,0.94918214 2.8584562,0.82985927 Z M 1.3187083,0.86392289 C 1.1174364,0.99214717 0.94954454,1.1674789 0.83022166,1.3741524 L 1.3527719,1.6756516 C 1.4236924,1.5528137 1.5230477,1.4481891 1.6426751,1.371978 Z M 0.79978183,1.4303211 C 0.68958743,1.6420025 0.63236274,1.8780209 0.63236274,2.1166666 H 1.2342741 c 0,-0.1418402 0.033798,-0.2822241 0.099292,-0.4080386 z"
     id="path913"
     inkscape:connector-curvature="0"
     inkscape:label="#" />
  <path
     style="font-variation-settings:normal;vector-effect:none;fill:#00ff00;stroke:none;stroke-width:1.03187501;stroke-linecap:butt;stroke-miterlimit:5.5;stroke-dasharray:none;stroke-opacity:1"
     d="M 2.4626564,2.1166666 A 0.34598985,0.34598985 0 0 1 2.1166666,2.4626564 0.34598985,0.34598985 0 0 1 1.7706767,2.1166666 0.34598985,0.34598985 0 0 1 2.1166666,1.7706768 0.34598985,0.34598985 0 0 1 2.4626564,2.1166666 Z"
     id="path1018"
     inkscape:connector-curvature="0"
     inkscape:label="#" />
</svg>
